X: 778
T: Paddy Won't You Drink Some Good Old Cider?
B: jims roots
M:2/4
L:1/4
Q: 1/4=100
K:D
V:1 
"D"a2 ae/f/ | "A"gg/a/ g/f/e | "D"f/e/d/B/ A/F/A/B/ | "A"d/B/A/F/ "D"ED :|
|:"D"D/E/F/G/ AA/B/ | "A"A/G/F/E/ F/E/D/C/ | "D"D/E/F/G/ AA/B/ | "A"d/AF/ "D"(3E/F/E/ D:|
|:"D"dd/B/ dA/B/ | d/c/d "A"eA/B/ | "D"d/f/e/d/ B/A/B/c/ | "A"d/B/A/F/ "D"ED:|
% abcbook-tune_id 6298c279f3101a59e6c778cd


% abcbook-boost 0
% abcbook-tablature 
% abcbook-transpose 
% abcbook-lastupdated 1654178426370
% abcbook-soundfonts 
% abcbook-repeats 1


